icons/svg/tourist/amusement_ride.svg

<?xml version="1.0" encoding="UTF-8" standalone="no"?>
<!-- Created with Inkscape (http://www.inkscape.org/) -->

<svg
   xmlns:dc="http://purl.org/dc/elements/1.1/"
   xmlns:cc="http://creativecommons.org/ns#"
   xmlns:rdf="http://www.w3.org/1999/02/22-rdf-syntax-ns#"
   xmlns:svg="http://www.w3.org/2000/svg"
   xmlns="http://www.w3.org/2000/svg"
   xmlns:sodipodi="http://sodipodi.sourceforge.net/DTD/sodipodi-0.dtd"
   xmlns:inkscape="http://www.inkscape.org/namespaces/inkscape"
   version="1.0"
   width="580"
   height="580"
   id="svg2"
   sodipodi:version="0.32"
   inkscape:version="0.48.4 r9939"
   sodipodi:docname="theme_park.svg"
   inkscape:output_extension="org.inkscape.output.svg.inkscape">
  <metadata
     id="metadata2975">
    <rdf:RDF>
      <cc:Work
         rdf:about="">
        <dc:format>image/svg+xml</dc:format>
        <dc:type
           rdf:resource="http://purl.org/dc/dcmitype/StillImage" />
        <cc:license
           rdf:resource="http://web.resource.org/cc/PublicDomain" />
        <dc:language>en</dc:language>
        <dc:title></dc:title>
      </cc:Work>
    </rdf:RDF>
  </metadata>
  <sodipodi:namedview
     inkscape:window-height="1004"
     inkscape:window-width="1920"
     inkscape:pageshadow="2"
     inkscape:pageopacity="0.0"
     guidetolerance="10.0"
     gridtolerance="10.0"
     objecttolerance="10.0"
     borderopacity="1.0"
     bordercolor="#666666"
     pagecolor="#ffffff"
     id="base"
     inkscape:zoom="0.65172414"
     inkscape:cx="170.33328"
     inkscape:cy="266.74942"
     inkscape:window-x="1680"
     inkscape:window-y="0"
     inkscape:current-layer="svg2"
     showgrid="false"
     inkscape:window-maximized="1" />
  <defs
     id="defs4">
    <inkscape:perspective
       sodipodi:type="inkscape:persp3d"
       inkscape:vp_x="0 : 290 : 1"
       inkscape:vp_y="0 : 1000 : 0"
       inkscape:vp_z="580 : 290 : 1"
       inkscape:persp3d-origin="290 : 193.33333 : 1"
       id="perspective2441" />
    <inkscape:perspective
       id="perspective3452"
       inkscape:persp3d-origin="30 : 20 : 1"
       inkscape:vp_z="60 : 30 : 1"
       inkscape:vp_y="0 : 1000 : 0"
       inkscape:vp_x="0 : 30 : 1"
       sodipodi:type="inkscape:persp3d" />
    <symbol
       viewBox="244.5 110 489 219.9"
       id="symbol-university">
      <path
         id="path4460"
         d="M79,43l57,119c0,0,21-96,104-96s124,106,124,106l43-133l82-17L0,17L79,43z" />
      <path
         id="path4462"
         d="M94,176l-21,39"
         stroke-width="20"
         stroke="#000000"
         fill="none" />
      <path
         id="path4464"
         d="M300,19c0,10.5-22.6,19-50.5,19S199,29.5,199,19s22.6-19,50.5-19S300,8.5,300,19z" />
      <path
         id="path4466"
         d="M112,216l-16-38L64,88c0,0-9-8-4-35s16-24,16-24"
         stroke-width="20"
         stroke="#000000"
         ill="none" />
    </symbol>
    <inkscape:perspective
       id="perspective4471"
       inkscape:persp3d-origin="372.04724 : 350.78739 : 1"
       inkscape:vp_z="744.09448 : 526.18109 : 1"
       inkscape:vp_y="0 : 1000 : 0"
       inkscape:vp_x="0 : 526.18109 : 1"
       sodipodi:type="inkscape:persp3d" />
    <inkscape:perspective
       id="perspective4668"
       inkscape:persp3d-origin="6 : 4 : 1"
       inkscape:vp_z="12 : 6 : 1"
       inkscape:vp_y="0 : 1000 : 0"
       inkscape:vp_x="0 : 6 : 1"
       sodipodi:type="inkscape:persp3d" />
    <inkscape:perspective
       id="perspective2893"
       inkscape:persp3d-origin="0.5 : 0.33333333 : 1"
       inkscape:vp_z="1 : 0.5 : 1"
       inkscape:vp_y="0 : 1000 : 0"
       inkscape:vp_x="0 : 0.5 : 1"
       sodipodi:type="inkscape:persp3d" />
  </defs>
  <g
     id="g1327">
    <path
       d="M 66.275,1.768 C 24.94,1.768 1.704,23.139 1.704,66.804 L 1.704,516.927 C 1.704,557.771 22.599,579.156 63.896,579.156 L 515.92,579.156 C 557.227,579.156 578.149,558.841 578.149,516.927 L 578.149,66.804 C 578.149,24.203 557.227,1.768 514.628,1.768 C 514.624,1.768 66.133,1.625 66.275,1.768 z"
       style="fill:#111111;stroke:#eeeeee;stroke-width:3.40799999"
       id="path1329" />
  </g>
  <path
     style="font-size:medium;font-style:normal;font-variant:normal;font-weight:normal;font-stretch:normal;text-indent:0;text-align:start;text-decoration:none;line-height:normal;letter-spacing:normal;word-spacing:normal;text-transform:none;direction:ltr;block-progression:tb;writing-mode:lr-tb;text-anchor:start;baseline-shift:baseline;opacity:0.536;color:#000000;fill:#ffffff;fill-opacity:1;stroke:none;stroke-width:17.79999923999999822;marker:none;visibility:visible;display:inline;overflow:visible;enable-background:accumulate;font-family:Sans;-inkscape-font-specification:Sans"
     d="m 287.45777,159.66053 c -7.03419,0 -12.72663,5.72066 -12.72663,12.75485 0,7.03419 5.69244,12.72663 12.72663,12.72663 7.03419,0 12.75485,-5.69244 12.75485,-12.72663 0,-7.03419 -5.72066,-12.75485 -12.75485,-12.75485 z m -191.040549,2.85009 c -7.156947,0.11764 -14.039437,1.06108 -20.656083,2.79365 a 8.0389357,8.0389357 0 1 0 4.091711,15.5485 c 5.190677,-1.35917 10.625645,-2.15883 16.338622,-2.31393 l 0,0.39506 0,60.47266 -10.55379,0 -9.029982,0 0,18.05996 9.029982,0 10.55379,0 0,43.34391 -10.55379,0 -9.029982,0 0,18.05996 9.029982,0 10.55379,0 0,43.34391 -10.55379,0 -9.029982,0 0,18.05997 9.029982,0 10.55379,0 0,43.34391 -10.55379,0 -9.029982,0 0,18.05996 9.029982,0 10.55379,0 0,43.34391 -10.55379,0 -9.029982,0 0,18.05996 9.029982,0 10.55379,0 0,11.54145 0,9.02998 18.059959,0 0,-9.02998 0,-11.54145 43.34392,0 0,11.54145 0,9.02998 18.05996,0 0,-9.02998 0,-11.54145 41.53792,0 0,11.54145 0,9.02998 18.05996,0 0,-9.02998 0,-11.54145 43.34391,0 0,11.54145 0,9.02998 18.05996,0 0,-9.02998 0,-11.54145 43.34391,0 0,11.54145 0,9.02998 18.05997,0 0,-9.02998 0,-11.54145 43.34391,0 0,11.54145 0,9.02998 18.05996,0 0,-9.02998 0,-11.54145 43.34391,0 0,11.54145 0,9.02998 18.05996,0 0,-9.02998 0,-69.92592 c 5.38021,0.45007 10.69678,0.74829 15.97178,0.93122 a 8.0374868,8.0374868 0 1 0 0.56438,-16.05644 c -29.14687,-1.01077 -57.72319,-5.03857 -90.83597,-22.65961 -7.39326,-3.93434 -15.01853,-8.58283 -22.91358,-14.02469 0.91,-0.0696 1.80636,-0.24496 2.65256,-0.59259 5.46136,-2.22305 12.33624,-4.67628 18.70899,-10.29982 6.37275,-5.62355 11.52632,-14.24981 14.33509,-26.58201 0.70628,-3.10439 -0.37947,-6.55194 -2.73721,-8.69136 l -7.11111,-6.46208 a 12.86901,12.86901 0 0 0 -11.03351,-19.35802 12.86901,12.86901 0 0 0 -7.61904,2.45502 l -7.44974,-6.77248 1.24162,-1.41094 a 18.287541,18.287541 0 0 0 -13.43209,-30.56084 18.287541,18.287541 0 0 0 -14.02469,6.40564 l -0.903,1.01588 c -1.72415,-1.35353 -3.93386,-2.0796 -6.12346,-1.94709 -0.10362,0.007 -0.20711,0.017 -0.3104,0.0282 -12.71126,1.22701 -22.00195,7.3259 -27.40035,14.75837 -5.39841,7.43247 -7.66069,15.38625 -10.18695,21.72839 -0.10335,0.26045 -0.17777,0.52157 -0.25397,0.79013 -7.18861,-8.05779 -14.58626,-16.74301 -22.20811,-26.13051 -4.18384,-5.15306 -8.31122,-10.12748 -12.38801,-14.95591 4.30371,-1.55269 9.0152,-3.60762 13.57319,-7.13933 6.71841,-5.20568 12.41048,-13.46639 16,-25.59435 0.89802,-3.04783 0.0367,-6.5491 -2.17284,-8.83245 l -6.57495,-6.80071 1.10053,-1.10052 a 12.86901,12.86901 0 0 0 -9.34039,-22.09524 12.86901,12.86901 0 0 0 -8.83245,3.89418 l -0.84656,0.84656 -6.77249,-6.99824 4.31746,-4.31746 a 18.287541,18.287541 0 0 0 -13.291,-31.37918 18.287541,18.287541 0 0 0 -12.55732,5.53086 l -3.9224,3.9224 c -1.63568,-1.45049 -3.82269,-2.28241 -6.01058,-2.28571 -0.0942,0.008 -0.18828,0.0174 -0.28219,0.0282 -12.76362,0.41387 -22.44194,5.90753 -28.30334,12.98059 -4.07162,4.9133 -6.63226,10.16533 -8.80424,14.98413 -12.77735,-10.72012 -24.96206,-19.55136 -36.59964,-26.63845 -26.30695,-16.02047 -50.20464,-23.1536 -71.675479,-22.8007 z m 17.834209,17.60846 c 12.98844,2.52643 27.32596,8.16379 43.34392,17.66491 l 0,4.62786 0,36.99471 -43.34392,0 0,-59.28748 z M 310.0045,197.0503 c -7.03419,0 -12.72663,5.72066 -12.72663,12.75485 0,7.03419 5.69244,12.72663 12.72663,12.72663 7.0342,0 12.72663,-5.69244 12.72663,-12.72663 0,-7.03419 -5.69243,-12.75485 -12.72663,-12.75485 z m -134.34919,12.61376 c 11.2069,8.09717 23.08921,17.97842 35.66843,29.7425 l -35.66843,0 0,-29.7425 z m -61.40388,47.80246 43.34392,0 0,43.34391 -43.34392,0 0,-43.34391 z m 61.40388,0 41.53792,0 0,43.34391 -41.53792,0 0,-43.34391 z m 59.59788,5.75661 c 10.65869,11.23754 21.75887,23.73314 33.32627,37.5873 l -33.32627,0 0,-37.5873 z m 157.06524,2.79365 c -0.43003,-0.0162 -0.85932,1.8e-4 -1.29806,0.0282 -7.01988,0.44859 -12.35688,6.49687 -11.90829,13.51676 0.44859,7.01988 6.49687,12.35687 13.51675,11.90828 7.01988,-0.44859 12.35688,-6.49687 11.90829,-13.51675 -0.42055,-6.58114 -5.76836,-11.69409 -12.21869,-11.93651 z m 24.86066,35.97884 c -0.43022,-0.0162 -0.85932,1.8e-4 -1.29806,0.0282 -7.01988,0.4486 -12.32866,6.5251 -11.88006,13.54498 0.44859,7.01988 6.49687,12.32866 13.51675,11.88007 7.01988,-0.4486 12.35688,-6.49688 11.90829,-13.51676 -0.42056,-6.58114 -5.79349,-11.69409 -12.24692,-11.9365 z m -302.92766,16.87477 43.34392,0 0,43.34391 -43.34392,0 0,-43.34391 z m 61.40388,0 41.53792,0 0,43.34391 -41.53792,0 0,-43.34391 z m 59.59788,0 35.7813,0 7.56261,0 0,4.54321 0,38.8007 -43.34391,0 0,-43.34391 z m 61.40387,15.46385 c 8.95059,10.18368 17.61948,19.45651 26.04585,27.88006 l -26.04585,0 0,-27.88006 z m -182.40563,45.94003 43.34392,0 0,43.34391 -43.34392,0 0,-43.34391 z m 61.40388,0 41.53792,0 0,43.34391 -41.53792,0 0,-43.34391 z m 59.59788,0 43.34391,0 0,43.34391 -43.34391,0 0,-43.34391 z m 61.40387,0 28.55732,0 14.78659,0 0,8.1552 0,35.18871 -43.34391,0 0,-43.34391 z m 61.40388,13.65784 c 14.27948,11.3095 27.8738,20.20355 40.97354,27.1746 0.79239,0.42168 1.58171,0.83413 2.37037,1.24163 l 0,1.26984 -43.34391,0 0,-29.68607 z m -243.80951,47.74603 43.34392,0 0,43.34391 -43.34392,0 0,-43.34391 z m 61.40388,0 41.53792,0 0,43.34391 -41.53792,0 0,-43.34391 z m 59.59788,0 43.34391,0 0,43.34391 -43.34391,0 0,-43.34391 z m 61.40387,0 43.34391,0 0,43.34391 -43.34391,0 0,-43.34391 z m 61.40388,0 43.34391,0 0,43.34391 -43.34391,0 0,-43.34391 z m 61.40387,0 10.49735,0 27.90829,0 c 1.65128,0.30232 3.2999,0.58563 4.93827,0.84656 l 0,1.89065 0,40.6067 -43.34391,0 0,-43.34391 z"
     id="path2899"
     inkscape:connector-curvature="0" />
</svg>

<svg width="580" height="580" viewBox="0 0 580 580" fill="none" xmlns="http://www.w3.org/2000/svg">
<g clip-path="url(#clip0)">
<path d="M66.2751 1.7679C24.9401 1.7679 1.7041 23.1389 1.7041 66.8039V516.927C1.7041 557.771 22.5991 579.156 63.8961 579.156H515.92C557.227 579.156 578.149 558.841 578.149 516.927V66.8039C578.149 24.2029 557.227 1.7679 514.628 1.7679C514.624 1.7679 66.1331 1.6249 66.2751 1.7679Z" fill="#111111" stroke="#EEEEEE" stroke-width="3.408"/>
<path opacity="0.536" d="M287.458 159.661C280.424 159.661 274.731 165.381 274.731 172.415C274.731 179.45 280.424 185.142 287.458 185.142C294.492 185.142 300.213 179.45 300.213 172.415C300.213 165.381 294.492 159.661 287.458 159.661ZM96.4172 162.511C89.2603 162.628 82.3778 163.572 75.7612 165.304C73.6993 165.847 71.9374 167.186 70.8632 169.028C69.7889 170.87 69.4902 173.063 70.0328 175.124C70.5754 177.186 71.9148 178.948 73.7564 180.023C75.5981 181.097 77.791 181.395 79.8529 180.853C85.0436 179.494 90.4785 178.694 96.1915 178.539V178.934V239.407H85.6377H76.6077V257.467H85.6377H96.1915V300.811H85.6377H76.6077V318.871H85.6377H96.1915V362.214H85.6377H76.6077V380.274H85.6377H96.1915V423.618H85.6377H76.6077V441.678H85.6377H96.1915V485.022H85.6377H76.6077V503.082H85.6377H96.1915V514.624V523.654H114.251V514.624V503.082H157.595V514.624V523.654H175.655V514.624V503.082H217.193V514.624V523.654H235.253V514.624V503.082H278.597V514.624V523.654H296.657V514.624V503.082H340.001V514.624V523.654H358.061V514.624V503.082H401.405V514.624V523.654H419.465V514.624V503.082H462.809V514.624V523.654H480.869V514.624V444.698C486.249 445.148 491.565 445.446 496.84 445.629C497.916 445.702 498.995 445.558 500.013 445.206C501.031 444.854 501.969 444.3 502.769 443.578C503.569 442.857 504.216 441.981 504.671 441.004C505.126 440.028 505.38 438.969 505.418 437.892C505.456 436.815 505.277 435.742 504.892 434.735C504.506 433.729 503.922 432.81 503.175 432.034C502.427 431.258 501.531 430.64 500.54 430.217C499.549 429.794 498.483 429.575 497.405 429.572C468.258 428.562 439.682 424.534 406.569 406.913C399.176 402.979 391.55 398.33 383.655 392.888C384.565 392.819 385.462 392.643 386.308 392.296C391.769 390.073 398.644 387.619 405.017 381.996C411.39 376.372 416.543 367.746 419.352 355.414C420.058 352.309 418.972 348.862 416.615 346.722L409.504 340.26C410.642 338.311 411.248 336.096 411.259 333.838C411.271 331.581 410.689 329.36 409.571 327.398C408.453 325.437 406.839 323.804 404.89 322.664C402.942 321.524 400.728 320.916 398.47 320.902C395.734 320.89 393.065 321.75 390.851 323.357L383.401 316.585L384.643 315.174C387.011 312.558 388.572 309.312 389.138 305.829C389.703 302.345 389.248 298.773 387.828 295.542C386.408 292.311 384.083 289.56 381.135 287.621C378.186 285.682 374.74 284.637 371.211 284.613C368.548 284.595 365.913 285.159 363.49 286.266C361.068 287.372 358.916 288.994 357.186 291.019L356.283 292.035C354.559 290.681 352.349 289.955 350.16 290.087C350.056 290.094 349.953 290.104 349.849 290.116C337.138 291.343 327.847 297.442 322.449 304.874C317.051 312.306 314.788 320.26 312.262 326.602C312.159 326.863 312.084 327.124 312.008 327.393C304.819 319.335 297.422 310.65 289.8 301.262C285.616 296.109 281.489 291.135 277.412 286.306C281.716 284.753 286.427 282.698 290.985 279.167C297.704 273.961 303.396 265.7 306.985 253.572C307.883 250.525 307.022 247.023 304.812 244.74L298.237 237.939L299.338 236.839C301.198 235.032 302.469 232.706 302.984 230.164C303.5 227.623 303.235 224.985 302.225 222.596C301.216 220.208 299.508 218.18 297.326 216.779C295.144 215.377 292.59 214.668 289.997 214.744C286.66 214.846 283.492 216.243 281.165 218.638L280.318 219.484L273.546 212.486L277.863 208.169C280.501 205.599 282.302 202.293 283.029 198.683C283.757 195.073 283.378 191.328 281.942 187.937C280.506 184.546 278.079 181.668 274.98 179.679C271.881 177.69 268.253 176.683 264.572 176.789C259.827 176.933 255.324 178.917 252.015 182.32L248.093 186.243C246.457 184.792 244.27 183.96 242.082 183.957C241.988 183.965 241.894 183.974 241.8 183.985C229.036 184.399 219.358 189.893 213.497 196.966C209.425 201.879 206.864 207.131 204.692 211.95C191.915 201.23 179.73 192.398 168.093 185.311C141.786 169.291 117.888 162.158 96.4172 162.511V162.511ZM114.251 180.119C127.24 182.646 141.577 188.283 157.595 197.784V202.412V239.407H114.251V180.119V180.119ZM310.005 197.05C302.97 197.05 297.278 202.771 297.278 209.805C297.278 216.839 302.97 222.532 310.005 222.532C317.039 222.532 322.731 216.839 322.731 209.805C322.731 202.771 317.039 197.05 310.005 197.05ZM175.655 209.664C186.862 217.761 198.745 227.643 211.324 239.407H175.655V209.664ZM114.251 257.467H157.595V300.811H114.251V257.467V257.467ZM175.655 257.467H217.193V300.811H175.655V257.467V257.467ZM235.253 263.223C245.912 274.461 257.012 286.956 268.579 300.811H235.253V263.223V263.223ZM392.318 266.017C391.888 266.001 391.459 266.017 391.02 266.045C384.001 266.494 378.664 272.542 379.112 279.562C379.561 286.582 385.609 291.919 392.629 291.47C399.649 291.022 404.986 284.973 404.537 277.953C404.117 271.372 398.769 266.259 392.318 266.017V266.017ZM417.179 301.996C416.749 301.98 416.32 301.996 415.881 302.024C408.861 302.473 403.552 308.549 404.001 315.569C404.45 322.589 410.498 327.898 417.518 327.449C424.538 327 429.875 320.952 429.426 313.932C429.005 307.351 423.633 302.238 417.179 301.996V301.996ZM114.251 318.871H157.595V362.214H114.251V318.871ZM175.655 318.871H217.193V362.214H175.655V318.871ZM235.253 318.871H271.035H278.597V323.414V362.214H235.253V318.871V318.871ZM296.657 334.334C305.608 344.518 314.277 353.791 322.703 362.214H296.657V334.334V334.334ZM114.251 380.274H157.595V423.618H114.251V380.274ZM175.655 380.274H217.193V423.618H175.655V380.274ZM235.253 380.274H278.597V423.618H235.253V380.274V380.274ZM296.657 380.274H325.214H340.001V388.43V423.618H296.657V380.274ZM358.061 393.932C372.34 405.242 385.935 414.136 399.035 421.107C399.827 421.529 400.616 421.941 401.405 422.348V423.618H358.061V393.932V393.932ZM114.251 441.678H157.595V485.022H114.251V441.678ZM175.655 441.678H217.193V485.022H175.655V441.678ZM235.253 441.678H278.597V485.022H235.253V441.678V441.678ZM296.657 441.678H340.001V485.022H296.657V441.678ZM358.061 441.678H401.405V485.022H358.061V441.678ZM419.465 441.678H429.962H457.87C459.522 441.981 461.17 442.264 462.809 442.525V444.415V485.022H419.465V441.678Z" fill="white"/>
</g>
<defs>
<clipPath id="clip0">
<path d="M0 0H580V580H0V0Z" fill="white"/>
</clipPath>
</defs>
</svg>
